X:1
T:Title
%%score ( 1 2 ) ( 3 4 )
L:1/8
Q:1/4=120
M:12/8
K:Ab
V:1 treble nm="Strings 1, Treble"
V:2 treble 
V:3 bass nm="Strings 1, Bass"
V:4 bass 
V:1
 z6 z3 E[=DF][_DG] | [CA]2 [CE] [CE]2 [CE] [CE]2 [CA] [Ec]2 [=EB] | %2
 [FA]2 [FA] [FA]2 [FB] [FA]3 [FA][EG][DF] | [DF]2 [CE] [CE]2 [B,D] [A,C]2 [CE] [CA]2 [DB] | %4
 [Ec]2 [Ec] [EB]2 [E=A] [EB]3[Q:1/4=120] E[=DF][_DG][Q:1/4=12] | %5
 [CA]2 [CE] [CE]2 [CE] [CE]2 [CA] [Ec]2 [=EB] | [FA]2 [FA] [FA]2 [FB] [FA]3 [Fd]3 | %7
 [Ec]2 [Ec] [Ec]2 [DB] [CA]2 [DF] E2 E | %8
 [EG]2 [EA] [EB]2 [EG] [EA]3[Q:1/4=120] [Ec][DB][CA][Q:1/4=12] | [DF]6- [DF]2 [FA] [Fd]2 [Af] | %10
 [Ae]6 [Ac]3 A2 [Ac] | [GB]6- [GB]2 [Ge] [Ge]2 [Gd] | %12
 [Ac]2 [EB] [EA]2 [EB] [Ac]3[Q:1/4=120] [Ec][DB][CA][Q:1/4=12] | [DF]6- [DF]2 [FA] [Fd]2 [Af] | %14
 [Ae]6 [Ac]3 A2 [Ac] | [GB]6- [GB]2 [Ge] [Ge]2 [EG] | A6- A3 z3 |] %17
V:2
 x12 | x12 | x12 | x12 | x12 | x12 | x12 | x12 | x12 | x12 | x12 | x12 | x12 | x12 | x12 | x12 | %16
 E2 E F2 F E3 z3 |] %17
V:3
 z6 z3 G,A,[E,B,] | [A,,A,]2 [A,,A,] [A,,A,]2 [A,,A,] [A,,A,]2 [A,,A,] [A,,A,]2 [C,A,] | %2
w: 1.~We~ * have~|reached~ an~ aw ful~ e ra~ in~ the~|
 [D,A,]2 [D,A,] [D,D]2 [D,D] [D,D]3 [D,A,]2 [D,A,] | %3
w: on ward~ flight~ of~ years,~ While~ the~|
 [A,,A,]2 [A,,A,] [A,,A,]2 [A,,E,] [A,,E,]2 [A,,A,] [A,,A,]2 [A,,A,] | %4
w: na tions~ are~ in~ slum ber,~ cry ing~|
 [E,A,]2 [E,G,] [E,G,]2 [E,_G,] [E,=G,]3 G,A,[E,B,] | %5
w: "peace"~ 'mid~ drown ing~ fears;~ Lo,~ * the~|
 [A,,A,]2 [A,,A,] [A,,A,]2 [A,,A,] [A,,A,]2 [A,,A,] [A,,A,]2 [C,A,] | %6
w: shad ows~ of~ cre a tion~ length en~|
 [D,A,]2 [D,A,] [D,D]2 [D,D] [D,D]3 [D,A,]3 | %7
w: to~ the~ e ven tide,~ The~|
 [A,,A,]2 [A,,A,] [A,,A,]2 [A,,A,] [A,,A,]2 [A,,A,] [C,A,]2 [C,A,] | %8
w: Lord~ is~ sure ly~ com ing~ to~ re|
 [E,B,]2 [E,C] [E,D]2 [E,D] [A,,C]3 [A,,A,]2 [A,,A,] | %9
w: ceive~ His~ ho ly~ bride.~ * *|
 [D,A,]2 [D,A,] [D,A,]2 [D,A,] [D,A,]2 [D,A,] [D,A,]2 [D,D] | %10
w: |
 [A,C]2 [A,C] [A,C]2 [A,C] [A,E]2 [A,E] [CE]2[K:bass] [A,E] | %11
w: |
 [E,E]2 [E,E] [E,E]2 [E,E] [E,E]2 [E,B,] [E,B,]2 [E,E] | %12
w: |
 [A,E]2 [A,D] [A,C]2 [A,D] [A,E]3 [A,,A,]2 [A,,A,] | %13
w: |
 [D,A,]2 [D,A,] [D,A,]2 [D,A,] [D,A,]2 [D,A,] [D,A,]2 [D,D] | %14
w: |
 [A,C]2 [A,C] [A,C]2 [A,C] [A,E]2 [A,E] [CE]2[K:bass] [A,E] | %15
w: |
 [E,E]2 [E,E] [E,E]2 [E,E] [E,E]3 [E,B,]2 [E,B,] | [A,,C]2 [A,,C] [A,,D]2 [A,,D] [A,,C]3 z3 |] %17
w: ||
V:4
 z6 z3 .E,3 | x12 | x12 | x12 | z6 z3 .E,3 | x12 | x12 | x12 | x12 | x12 | x11[K:bass] x | x12 | %12
 x12 | x12 | x11[K:bass] x | x12 | x12 |] %17

